public/img/icons/server-icon.svg

<svg fill="none" height="64" viewBox="0 0 64 64" width="64" xmlns="http://www.w3.org/2000/svg"><path clip-rule="evenodd" d="m59 31c0-5.5228-4.4772-10-10-10 0-8.8366-7.1634-16-16-16-7.4591 0-13.726 5.1042-15.4986 12.0103-.1663-.0068-.3334-.0103-.5014-.0103-6.6274 0-12 5.3726-12 12s5.3726 12 12 12h32c5.5228 0 10-4.4772 10-10z" fill="#fff" fill-rule="evenodd"/><path d="m49 21h-1c0 .5523.4477 1 1 1zm-31.4986-3.9897-.041.9991c.4714.0194.8923-.2934 1.0096-.7505zm31.4986 4.9897c4.9706 0 9 4.0294 9 9h2c0-6.0751-4.9249-11-11-11zm-16-16c8.2843 0 15 6.7157 15 15h2c0-9.3888-7.6112-17-17-17zm-14.53 11.2589c1.6619-6.4747 7.5385-11.2589 14.53-11.2589v-2c-7.9266 0-14.5839 5.42412-16.4672 12.7617zm-1.47.7411c.1543 0 .3077.0032.4604.0094l.0821-1.9983c-.18-.0074-.3608-.0111-.5425-.0111zm-11 11c0-6.0751 4.9249-11 11-11v-2c-7.1797 0-13 5.8203-13 13zm11 11c-6.0751 0-11-4.9249-11-11h-2c0 7.1797 5.8203 13 13 13zm32 0h-32v2h32zm9-9c0 4.9706-4.0294 9-9 9v2c6.0751 0 11-4.9249 11-11z" fill="#000"/><rect fill="#fff" height="12" rx="2" width="40" x="12" y="29"/><path d="m24 29h26c1.1046 0 2 .8954 2 2v8c0 1.1046-.8954 2-2 2h-36c-1.1046 0-2-.8954-2-2v-8c0-1.1046.8954-2 2-2h6" stroke="#000" stroke-linecap="round" stroke-width="2"/><path d="m36 33v4" stroke="#000" stroke-linecap="round" stroke-width="2"/><path d="m40 33v4" stroke="#000" stroke-linecap="round" stroke-width="2"/><path d="m44 33v4" stroke="#000" stroke-linecap="round" stroke-width="2"/><path d="m48 33v4" stroke="#000" stroke-linecap="round" stroke-width="2"/><circle cx="17" cy="35" fill="#000" r="2"/><rect fill="#fff" height="12" rx="2" width="40" x="12" y="45"/><path d="m34 57h-20c-1.1046 0-2-.8954-2-2v-8c0-1.1046.8954-2 2-2h36c1.1046 0 2 .8954 2 2v8c0 1.1046-.8954 2-2 2h-12" stroke="#000" stroke-linecap="round" stroke-width="2"/><path d="m36 49v4" stroke="#000" stroke-linecap="round" stroke-width="2"/><path d="m40 49v4" stroke="#000" stroke-linecap="round" stroke-width="2"/><path d="m44 49v4" stroke="#000" stroke-linecap="round" stroke-width="2"/><path d="m48 49v4" stroke="#000" stroke-linecap="round" stroke-width="2"/><g fill="#000"><circle cx="17" cy="51" r="2"/><path d="m15 41h34v4h-34z"/><path d="m15 57h8v2c0 .5523-.4477 1-1 1h-6c-.5523 0-1-.4477-1-1z"/><path d="m41 57h8v2c0 .5523-.4477 1-1 1h-6c-.5523 0-1-.4477-1-1z"/><path d="m52 31h1c1.1046 0 2 .8954 2 2v6h-3z" stroke="#000" stroke-linejoin="round" stroke-width="2"/></g></svg>

<svg width="64" height="64" viewBox="0 0 64 64" fill="none" xmlns="http://www.w3.org/2000/svg">
<path fill-rule="evenodd" clip-rule="evenodd" d="M59 31C59 25.4772 54.5228 21 49 21C49 12.1634 41.8366 5 33 5C25.5409 5 19.274 10.1042 17.5014 17.0103C17.3351 17.0035 17.168 17 17 17C10.3726 17 5 22.3726 5 29C5 35.6274 10.3726 41 17 41H49C54.5228 41 59 36.5228 59 31Z" fill="white"/>
<path d="M49 21H48C48 21.5523 48.4477 22 49 22V21ZM17.5014 17.0103L17.4604 18.0094C17.9318 18.0288 18.3527 17.716 18.47 17.2589L17.5014 17.0103ZM49 22C53.9706 22 58 26.0294 58 31H60C60 24.9249 55.0751 20 49 20V22ZM33 6C41.2843 6 48 12.7157 48 21H50C50 11.6112 42.3888 4 33 4V6ZM18.47 17.2589C20.1319 10.7842 26.0085 6 33 6V4C25.0734 4 18.4161 9.42412 16.5328 16.7617L18.47 17.2589ZM17 18C17.1543 18 17.3077 18.0032 17.4604 18.0094L17.5425 16.0111C17.3625 16.0037 17.1817 16 17 16V18ZM6 29C6 22.9249 10.9249 18 17 18V16C9.8203 16 4 21.8203 4 29H6ZM17 40C10.9249 40 6 35.0751 6 29H4C4 36.1797 9.8203 42 17 42V40ZM49 40H17V42H49V40ZM58 31C58 35.9706 53.9706 40 49 40V42C55.0751 42 60 37.0751 60 31H58Z" fill="black"/>
<rect x="12" y="29" width="40" height="12" rx="2" fill="white"/>
<path d="M24 29H50C51.1046 29 52 29.8954 52 31V39C52 40.1046 51.1046 41 50 41H14C12.8954 41 12 40.1046 12 39V31C12 29.8954 12.8954 29 14 29H20" stroke="black" stroke-width="2" stroke-linecap="round"/>
<path d="M36 33V37" stroke="black" stroke-width="2" stroke-linecap="round"/>
<path d="M40 33V37" stroke="black" stroke-width="2" stroke-linecap="round"/>
<path d="M44 33V37" stroke="black" stroke-width="2" stroke-linecap="round"/>
<path d="M48 33V37" stroke="black" stroke-width="2" stroke-linecap="round"/>
<circle cx="17" cy="35" r="2" fill="black"/>
<rect x="12" y="45" width="40" height="12" rx="2" fill="white"/>
<path d="M34 57H14C12.8954 57 12 56.1046 12 55V47C12 45.8954 12.8954 45 14 45H50C51.1046 45 52 45.8954 52 47V55C52 56.1046 51.1046 57 50 57H38" stroke="black" stroke-width="2" stroke-linecap="round"/>
<path d="M36 49V53" stroke="black" stroke-width="2" stroke-linecap="round"/>
<path d="M40 49V53" stroke="black" stroke-width="2" stroke-linecap="round"/>
<path d="M44 49V53" stroke="black" stroke-width="2" stroke-linecap="round"/>
<path d="M48 49V53" stroke="black" stroke-width="2" stroke-linecap="round"/>
<circle cx="17" cy="51" r="2" fill="black"/>
<rect x="15" y="41" width="34" height="4" fill="black"/>
<path d="M15 57H23V59C23 59.5523 22.5523 60 22 60H16C15.4477 60 15 59.5523 15 59V57Z" fill="black"/>
<path d="M41 57H49V59C49 59.5523 48.5523 60 48 60H42C41.4477 60 41 59.5523 41 59V57Z" fill="black"/>
<path d="M52 31H53C54.1046 31 55 31.8954 55 33V39H52V31Z" fill="black" stroke="black" stroke-width="2" stroke-linejoin="round"/>
</svg>
